src/assets/svg/icons/fa/nuevos/classic/duotone/lira-sign classic duotone.svg

<svg xmlns="http://www.w3.org/2000/svg" viewBox="0 0 320 512"><defs><style>.fa-secondary{opacity:.4}</style></defs><path class="fa-primary" d="M176.4 95.1C140.8 95.1 112 124.8 112 160.4V332.5C112 361.5 104.1 390 89.2 414.9L88.52 416H288C305.7 416 320 430.3 320 448C320 465.7 305.7 480 288 480H32C20.47 480 9.834 473.8 4.154 463.8C-1.527 453.7-1.371 441.4 4.56 431.5L34.32 381.9C43.27 367 48 349.9 48 332.5V160.4C48 89.47 105.5 32 176.4 32C190.2 32 203.9 34.22 216.1 38.59L298.1 65.64C314.9 71.23 323.9 89.35 318.4 106.1C312.8 122.9 294.6 131.9 277.9 126.4L196.7 99.3C190.2 97.12 183.3 96 176.4 96V95.1z"/><path class="fa-secondary" d="M48 256H32C14.33 256 0 241.7 0 224C0 206.3 14.33 192 32 192H48V256zM48 332.5C48 339.1 47.33 345.6 46.01 352H32C14.33 352 0 337.7 0 320C0 302.3 14.33 288 32 288H48V332.5zM110.8 352C111.6 345.6 112 339.1 112 332.5V288H224C241.7 288 256 302.3 256 320C256 337.7 241.7 352 224 352H110.8zM112 256V192H224C241.7 192 256 206.3 256 224C256 241.7 241.7 256 224 256H112z"/></svg>

<svg xmlns="http://www.w3.org/2000/svg" viewBox="0 0 320 512"><!--! Font Awesome Pro 6.4.0 by @fontawesome - https://fontawesome.com License - https://fontawesome.com/license (Commercial License) Copyright 2023 Fonticons, Inc. --><defs><style>.fa-secondary{opacity:.4}</style></defs><path class="fa-primary" d="M176.4 96c-35.5 0-64.4 28.8-64.4 64.4V332.5c0 29-7.9 57.5-22.8 82.3l-.7 1.1H288c17.7 0 32 14.3 32 32s-14.3 32-32 32H32c-11.5 0-22.2-6.2-27.8-16.2s-5.5-22.3 .4-32.2l29.8-49.6c9-14.9 13.7-32 13.7-49.4V160.4C48 89.5 105.5 32 176.4 32c13.8 0 27.5 2.2 40.6 6.6l81.2 27.1c16.8 5.6 25.8 23.7 20.2 40.5s-23.7 25.8-40.5 20.2L196.7 99.3c-6.6-2.2-13.4-3.3-20.4-3.3z"/><path class="fa-secondary" d="M48 192v64H32c-17.7 0-32-14.3-32-32s14.3-32 32-32H48zm0 96v44.5c0 6.6-.7 13.1-2 19.5H32c-17.7 0-32-14.3-32-32s14.3-32 32-32H48zm62.8 64c.8-6.4 1.2-12.9 1.2-19.5V288H224c17.7 0 32 14.3 32 32s-14.3 32-32 32H110.8zm1.2-96V192H224c17.7 0 32 14.3 32 32s-14.3 32-32 32H112z"/></svg>
